T: Blackcock, The
M: 6/8
L: 1/8
K: Gmaj
D|:D2 A ADA|B2D A2D|G2D DB,D|EDB, D2D|D2A ADA|B2D A2D|G2B c2B|1 B2A A2D:|2 B2A AGA||  ||B2G GFG|D2G GFG| B2G GFG|c2e d2c|B2G GFG|D2G GED|E2D EFG|A3  ABc|BGB dBG|d2F FGA|G2E E2F|G3 A2c|B2G GFG|D2G GED |E2D EFG|A3 A2||
